svgs/aldi_talk.svg

<svg width="192" height="192" xmlns="http://www.w3.org/2000/svg"><path style="fill:none;stroke:#000;stroke-width:12;stroke-linecap:round;stroke-linejoin:round;stroke-miterlimit:57.5;paint-order:stroke markers fill" d="M22.4 108.227h31.967m-15.984 1.483v38.902m24.909.153 14.125-40.538 13.402 40.231m-23.941-8.815h18.789m-47.73-53.636 14.124-40.538L65.463 85.7m-23.94-8.815H60.31m50.985 31.342v40.231h18.113M83.894 45.471v40.231h18.114m43.857 22.525v40.231m24.221-40.23-20.649 20.115 20.649 20.116m-50.36-62.756V45.47s20.477-1.244 20.34 20.116c-.136 21.136-20.34 20.116-20.34 20.116zm42.461-40.232v40.231"/></svg>

<svg width="192" height="192" xmlns="http://www.w3.org/2000/svg"><path style="fill:none;stroke:#000;stroke-width:12;stroke-linecap:round;stroke-linejoin:round;stroke-miterlimit:57.5;paint-order:stroke markers fill" d="M22.4 108.227h31.967M38.383 109.71v38.902M63.292 148.765l14.125-40.538 13.402 40.231M66.878 139.643h18.789M37.937 86.007l14.124-40.538L65.463 85.7M41.523 76.885H60.31M111.295 108.227v40.231h18.113M83.894 45.471v40.231h18.114M145.865 108.227v40.231M170.086 108.228l-20.649 20.115 20.649 20.116M119.726 85.703V45.47s20.477-1.244 20.34 20.116c-.136 21.136-20.34 20.116-20.34 20.116zM162.187 45.471v40.231"/></svg>
